svg/business/currency_euro_line.svg

<?xml version="1.0" encoding="UTF-8"?>
<svg width="24px" height="24px" viewBox="0 0 24 24" version="1.1" xmlns="http://www.w3.org/2000/svg" xmlns:xlink="http://www.w3.org/1999/xlink">
    <title>currency_euro_line</title>
    <g id="Icon" stroke="none" stroke-width="1" fill="none" fill-rule="evenodd">
        <g id="Business" transform="translate(-624.000000, 0.000000)">
            <g id="currency_euro_line" transform="translate(624.000000, 0.000000)">
                <rect id="矩形" fill-rule="nonzero" x="0" y="0" width="24" height="24"></rect>
                <path d="M12,2 C17.5228,2 22,6.47715 22,12 C22,17.5228 17.5228,22 12,22 C6.47715,22 2,17.5228 2,12 C2,6.47715 6.47715,2 12,2 Z M12,4 C7.58172,4 4,7.58172 4,12 C4,16.4183 7.58172,20 12,20 C16.4183,20 20,16.4183 20,12 C20,7.58172 16.4183,4 12,4 Z M12.118,6 C12.9494,6 13.6528,6.16622 14.2754,6.50382 C14.8859,6.83485 15.3552,7.2969 15.7655,7.78517 C16.1209,8.20795 16.0662,8.83875 15.6434,9.1941 C15.2206,9.54944 14.5898,9.49477 14.2345,9.07198 C13.9021,8.67654 13.6214,8.4243 13.322,8.26197 C13.0348,8.10621 12.6686,8 12.118,8 C11.2668933,8 10.4099502,8.4830224 9.81042393,9.31616004 L9.68599,9.5 L12,9.5 C12.5523,9.5 13,9.94772 13,10.5 C13,11.01285 12.613973,11.4355092 12.1166239,11.4932725 L12,11.5 L9.02328,11.5 C9.00795,11.6624 9,11.8292 9,12 L9.00589125,12.25315 L9.00589125,12.25315 L9.02328,12.5 L12,12.5 C12.5523,12.5 13,12.9477 13,13.5 C13,14.01285 12.613973,14.4355092 12.1166239,14.4932725 L12,14.5 L9.68599,14.5 C10.2875,15.4455 11.2061,16 12.118,16 C12.6686,16 13.0348,15.8938 13.322,15.738 C13.6214,15.5757 13.9021,15.3235 14.2345,14.928 C14.5898,14.5052 15.2206,14.4506 15.6434,14.8059 C16.0662,15.1612 16.1209,15.792 15.7655,16.2148 C15.3552,16.7031 14.8859,17.1651 14.2754,17.4962 C13.6528,17.8338 12.9494,18 12.118,18 C10.0328382,18 8.37335106,16.6097858 7.55543516,14.7128151 L7.46804,14.5 L7,14.5 C6.44772,14.5 6,14.0523 6,13.5 C6,12.98715 6.38604429,12.5644908 6.88337975,12.5067275 L7.01809,12.5 C7.00609,12.3343 7,12.1675 7,12 L7.004545,11.749325 L7.004545,11.749325 L7.01809,11.5 L7,11.5 C6.44772,11.5 6,11.0523 6,10.5 C6,9.98716857 6.38604429,9.56449347 6.88337975,9.5067278 L7,9.5 L7.46804,9.5 C8.25101,7.49515 9.95561,6 12.118,6 Z" id="形状" fill="#09244B"></path>
            </g>
        </g>
    </g>
</svg>

<svg xmlns="http://www.w3.org/2000/svg" width="24" height="24"><g fill="none" fill-rule="evenodd"><path d="M0 0h24v24H0z"/><path fill="#09244B" d="M12 2c5.523 0 10 4.477 10 10s-4.477 10-10 10S2 17.523 2 12 6.477 2 12 2m0 2a8 8 0 1 0 0 16 8 8 0 0 0 0-16m.118 2c.831 0 1.535.166 2.157.504.61.33 1.08.793 1.49 1.281a1 1 0 1 1-1.53 1.287c-.333-.395-.614-.648-.913-.81-.287-.156-.653-.262-1.204-.262-.851 0-1.708.483-2.308 1.316l-.124.184H12a1 1 0 0 1 .117 1.993L12 11.5H9.023A5.32 5.32 0 0 0 9 12l.006.253.017.247H12a1 1 0 0 1 .117 1.993L12 14.5H9.686c.601.945 1.52 1.5 2.432 1.5.55 0 .917-.106 1.204-.262.3-.162.58-.415.913-.81a1 1 0 0 1 1.53 1.287c-.41.488-.88.95-1.49 1.281-.622.338-1.326.504-2.157.504-2.085 0-3.745-1.39-4.563-3.287l-.087-.213H7a1 1 0 0 1-.117-1.993l.135-.007A6.923 6.923 0 0 1 7 12l.005-.25.013-.25H7a1 1 0 0 1-.117-1.993L7 9.5h.468C8.251 7.495 9.956 6 12.118 6"/></g></svg>
